X:1
T:Dostojno Jest
T:Dostojno Jest
T:Dmitry Bortniansky
C:Dmitry Bortniansky
%%score [ 1 2 3 4 ]
L:1/8
Q:1/4=90
M:4/4
K:F
V:1 treble nm="Soprano" snm="S"
V:2 treble nm="Alto" snm="A"
V:3 treble-8 nm="Tenor" snm="T"
V:4 bass nm="Bass" snm="B"
V:1
!p! A2 |!<(! A6!<)!!>(! G2!>)! | G4 z4 | F4!>(! F2 G2 | A3!>)! A A2 A2 | G6 A2 | B4!<(! B2 B2!<)! | %7
w: Do-|stoj- no|jest|ja- ko vo|is- tin- nu, bla-|zhi- ti|Tja, Bo- go-|
 B6 (A2 |!>(! A3) G!>)! G2 z2 |!pp! F4 F2 F2 | F3 E E2 z2 | F2 F2 G2 G2 | A3 A A2!<(! c2 | %13
w: ro- *|* di- tsu,|pri- sno bla-|zhen- nu- ju|i prje- nje- po-|rotsh- nu- ju, i|
 d6 e2!<)! |!f! f6 e2 | e4 (d3 c) | c4!p! z2 G2 | B4 A2 G2 | F2 G2 A2 z2 | z8 | z8 | z8 | z8 | %23
w: Ma- tjer|Bo- ga|na- * she-|go. Tshe-|stnjej- shu- ju|hje- ru- vym,|||||
!p! F4 F4 | F3 E E2 z2 |!<(! F2 F2 G2 G2!<)! | A3 A A2 z2 | B2 BB B2 B2 |!>(! B3 A A2!>)! z2 | %29
w: bjez is-|tlje- ni- ja|Bo- ga slo- va|rozh- u- ju,|su- shu- ju Bo- go-|ro- di- tsu|
 G4 G2 G2 | (G4 A2) B2 | c2 A2 d2 c2 | B2 A2 G2 A2 | B4 A2 G2 |!p! (F8 | E2 F2 G4) | G4 F2 E2 | %37
w: Tja vje- li-|tsha- * *|||||||
!pp! F8 |] %38
w: em.|
V:2
!p! F2 |!<(! F6!<)!!>(! E2!>)! | E4 z4 | D4!>(! D2 E2 | F3!>)! F F2 F2 | E6 F2 | D4!<(! D2 D2!<)! | %7
w: Do-|stoj- no|jest|ja- ko vo|is- tin- nu, bla-|zhi- ti|Tja, Bo- go-|
 G6 (F2 |!>(! F3) E!>)! E2 z2 |!pp! D4 D2 D2 | D3 ^C C2 z2 | D2 D2 E2 E2 | F3 F F2!<(! G2 | %13
w: ro- *|* di- tsu,|pri- sno bla-|zhen- nu- ju|i prje- nje- po-|rotsh- nu- ju, i|
 G6 G2!<)! |!f! G6 G2 | (G4 F3) E | E4!p! z2 E2 | G4 F2 C2 | A,2 C2 F2 F2 | !>!F4 E2 F2 | %20
w: Ma- tjer|Bo- ga|na- * she-|go. Tshe-|stnjej- shu- ju|hje- ru- vym, i|slav- njej- shu-|
 F2!<(! F4 F2!<)! | F4!>(! E2 F2!>)! | .E2 .E2 .!fermata!E2 z2 |!p! D4 D4 | D3 ^C C2 z2 | %25
w: ju bjez srav-|nje- ni- ja|sje- ra- fym,|bjez is-|tlje- ni- ja|
!<(! D2 D2 E2 E2!<)! | F3 F F2 z2 | F2 FF F2 F2 |!>(! F3 F F2!>)! z2 | F4 F2 F2 | (E4 F2 G2 | %31
w: Bo- ga slo- va|rozh- u- ju,|su- shu- ju Bo- go-|ro- di- tsu|Tja vje- li-|tsha- * *|
 A2 F2 B2 A2) | G2 F2 E2 F2 | E4 F2 D2 |!p! (C8 | (C8) | (C8) |!pp! C8) |] %38
w: ||||||em.|
V:3
!p! c2 |!<(! c6!<)!!>(! c2!>)! | c4 z4 | A4!>(! A2 c2 | c3!>)! c c2 c2 | c6 c2 | B4!<(! d2 d2!<)! | %7
w: Do-|stoj- no|jest|ja- ko vo|is- tin- nu, bla-|zhi- ti|Tja, Bo- go-|
 (c8 |!>(! c3) c!>)! c2 z2 |!pp! A4 A2 A2 | A3 A A2 z2 | A2 A2 c2 c2 | c3 c c2!<(! c2 | %13
w: ro-|* di- tsu,|pri- sno bla-|zhen- nu- ju|i prje- nje- po-|rotsh- nu- ju, i|
 =B6 c2!<)! |!f! d6 c2 | (c4 =B3) c | G4 z4 | z8 | z4!p! z2 A2 | !>!c4 B2 A2 | %20
w: Ma- tjer|Bo- ga|na- * she-|go.||I|slav- njej- shu-|
 A2!<(! (A2 B2) c2!<)! | (d2 c2)!>(! B2 A2!>)! | .G2 .G2 .!fermata!G2 z2 |!p! A4 A4 | A3 A A2 z2 | %25
w: ju bjez _ srav-|nje- * ni- ja|sje- ra- fym,|bjez is-|tlje- ni- ja|
!<(! A2 A2 c2 c2!<)! | c3 c c2 z2 | d2 dd d2 d2 |!>(! d3 c c2!>)! z2 | =B4 B2 B2 | ((c8 | c8) | %32
w: Bo- ga slo- va|rozh- u- ju,|su- shu- ju Bo- go-|ro- di- tsu|Tja vje- li-|tsha-||
 E2 F2 B2 A2 | G4 F2 B2) |!p! (A4 G2) F2 | G2 A2 B4 | B4 A2 G2 |!pp! A8 |] %38
w: |||||em.|
V:4
!p! F,2 |!<(! F,6!<)!!>(! C,2!>)! | C,4 z4 | D,4!>(! D,2 C,2 | F,3!>)! F, F,2 F,2 | (C2 B,4) A,2 | %6
w: Do-|stoj- no|jest|ja- ko vo|is- tin- nu, bla-|zhi- * ti|
 G,4!<(! G,2 F,2!<)! | E,6 F,2 |!>(! C,3 C,!>)! C,2 z2 |!pp! D,4 D,2 D,2 | A,,3 A,, A,,2 z2 | %11
w: Tja, Bo- go-|ro- *|* di- tsu,|pri- sno bla-|zhen- nu- ju|
 D,2 D,2 C,2 C,2 | F,3 F, F,2!<(! E,2 | D,6 C,2!<)! |!f! =B,,6 C,2 | (G,4 G,3) C, | C,4 z4 | z8 | %18
w: i prje- nje- po-|rotsh- nu- ju, i|Ma- tjer|Bo- ga|na- * she-|go.||
 z4!p! z2 F,2 | !>!A,4 G,2 F,2 | F,2!<(! (F,2 G,2) A,2!<)! | (B,2 A,2)!>(! G,2 F,2!>)! | %22
w: I|slav- njej- shu-|ju bjez _ srav-|nje- * ni- ja|
 .C,2 .C,2 .!fermata!C,2 z2 |!p! D,4 D,4 | A,,3 A,, A,,2 z2 |!<(! D,2 D,2 C,2 C,2!<)! | %26
w: sje- ra- fym,|bjez is-|tlje- ni- ja|Bo- ga slo- va|
 F,3 F, F,2 z2 | B,2 B,,B,, B,,2 D,2 |!>(! F,3 F, F,2!>)! z2 | D,4 D,2 D,2 | (C,8 | (C,8) | (C,8) | %33
w: rozh- u- ju,|su- shu- ju Bo- go-|ro- di- tsu|Tja vje- li-|tsha-|||
 C,4) D,2 B,,2 |!p! (C,8 | C,8 | F,8 |!pp! [F,,F,]8) |] %38
w: ||||em.|

